icon_installer/data/icons/scalable/actions/show-shell-symbolic.svg

<?xml version="1.0" encoding="UTF-8"?>
<svg height="16px" viewBox="0 0 16 16" width="16px" xmlns="http://www.w3.org/2000/svg">
    <g fill="#222222">
        <path d="m -0.0195312 2.027344 v 11.929687 c 0 1.117188 0.9023432 2.019531 2.0195312 2.019531 h 11.929688 c 1.117187 0 2.019531 -0.902343 2.019531 -2.019531 v -11.929687 c 0 -1.117188 -0.902344 -2.0195315 -2.019531 -2.0195315 h -11.929688 c -1.117188 0 -2.0195312 0.9023435 -2.0195312 2.0195315 z m 2.0312502 0.972656 h 12 v 11.007812 h -12 v -2.007812 h 0.003906 h 0.984375 c 0.5625 0 1.015625 -0.453125 1.015625 -1.015625 v -4.96875 c 0 -0.5625 -0.453125 -1.015625 -1.015625 -1.015625 h -0.984375 h -0.003906 z m 0 0"/>
        <path d="m 9.042969 4 h 0.65625 h 0.023437 c 0.167969 0.007812 0.335938 0.085938 0.453125 0.207031 l 0.84375 0.84375 l 0.867188 -0.84375 c 0.175781 -0.152343 0.292969 -0.203125 0.453125 -0.207031 h 0.660156 v 0.660156 c 0 0.1875 -0.023438 0.363282 -0.164062 0.496094 l -0.847657 0.84375 l 0.828125 0.824219 c 0.121094 0.125 0.183594 0.300781 0.183594 0.476562 v 0.65625 h -0.660156 c -0.175782 0 -0.351563 -0.058593 -0.472656 -0.183593 l -0.847657 -0.84375 l -0.84375 0.84375 c -0.125 0.125 -0.300781 0.183593 -0.476562 0.183593 h -0.65625 v -0.65625 c 0 -0.175781 0.058593 -0.351562 0.183593 -0.476562 l 0.84375 -0.824219 l -0.84375 -0.84375 c -0.140624 -0.128906 -0.199218 -0.3125 -0.183593 -0.496094 z m 0 0"/>
        <path d="m 6.050781 5 c -0.582031 0 -1.050781 0.46875 -1.050781 1.050781 v 4.902344 c 0 0.578125 0.46875 1.046875 1.050781 1.046875 h 4.898438 c 0.582031 0 1.050781 -0.46875 1.050781 -1.046875 v -1.953125 h -2.949219 c -0.582031 0 -1.050781 -0.46875 -1.050781 -1.046875 v -2.953125 z m 0 0"/>
    </g>
</svg>

<svg xmlns="http://www.w3.org/2000/svg" width="16" height="16"><g fill="#222"><path d="M-.02 2.027v11.93c0 1.117.903 2.02 2.02 2.02h11.93c1.117 0 2.02-.903 2.02-2.02V2.027c0-1.117-.903-2.02-2.02-2.02H2A2.02 2.02 0 0 0-.02 2.028zM2.012 3h12v11.008h-12V12H3c.562 0 1.016-.453 1.016-1.016V6.016C4.016 5.453 3.562 5 3 5h-.988zm0 0"/><path d="M9.043 4h.68a.69.69 0 0 1 .453.207l.844.844.867-.844c.175-.152.293-.203.453-.207H13v.66c0 .188-.023.363-.164.496L11.988 6l.828.824a.688.688 0 0 1 .184.477v.656h-.66a.654.654 0 0 1-.473-.184l-.847-.843-.844.843a.67.67 0 0 1-.477.184h-.656v-.656a.67.67 0 0 1 .184-.477L10.07 6l-.843-.844a.595.595 0 0 1-.184-.496zm0 0"/><path d="M6.05 5C5.47 5 5 5.469 5 6.05v4.903C5 11.531 5.469 12 6.05 12h4.9c.581 0 1.05-.469 1.05-1.047V9H9.05C8.47 9 8 8.531 8 7.953V5zm0 0"/></g></svg>
